X: 11863
T: Emigrant, The
R: jig
M: 6/8
K: Dmajor
|:DdD cDB|DAB AGF|EFD E3|FGA FGE|
DdD cDB|DAB AGF|~G3 GAB|1 A2F GFE:|2 A2F GFG||
ABF A3|ABF EFD|DBB BAG|~B3 Bdc|
~A3 dAd|eAe f3|~g3 gef|ged cdB|
ABF A3|ABF EFD|DBB BAG|~B3 Bdc|
~A3 dAd|eAe f3|agf gef|ged cBA||

